X:415
T:Mon habit n'a plus de boutons
Z:Jack Campin, http://www.campin.me.uk/
Z:Brabants Bourdon Orkest, Michel Heijblom
F:Jack Campin's Nine-Note Tunebook
% last edit 17-02-2013
M:2/4
L:1/8
Q:1/4=120
N:also fits in AMin/DMin
K:BMin
B|E>F GA|B2  B/A/B/c/|d>c      BA|B>A GF|E>F GA|B2 B/A/B/c/|d>c      BA|B3:|
K:EMin
B|c>B AG|F>G Ac      |B/c/B/A/ GF|G2  EB|c>B AG|F2 c2      |B/c/B/A/ GF|E3:|

